X:944031
T:The Sound of Silence 3Voice P1
H: 
B: https://musescore.com/georgewu/ptxsoundofsilence, https://musescore.com/abchords321/scores/5449091
C:Simon and Garfunkel (Pentatonix / disturbed)
O:Transcribed by Kevin Fraser
Z:Kevin Fraser
Q:1/4=90
%K:AMix
K:A
%K:AMix sound=A_b
%K:{g}B{d}BMix score=_{g}B{e}A %concert Pitch
M:2/4
L:1/8
U: R = ///
U: r = //
I:MIDI=program 110
% I:linebreak $
%%MIDI gracedivider 100
V:M gstem=up stem=down name="Melody" sname=Melody transpose=2
V:H gstem=up stem=down name="Chord" sname=Ch transpose=2
V:C gstem=up stem=down name="Bass" sname=Bass transpose=2
V:P3 gstem=up stem=down name="Piper 3" sname=P3 transpose=2
V:P4 gstem=up stem=down name="Piper 4" sname=P4 transpose=2
V:BB gstem=up stem=down name="Brass Bass" sname="ABCD-C" transpose=1  octave=-1 clef=bass
V:BC gstem=up stem=down name="Brass Chord" sname="ABCD-D" transpose=1
V:BD gstem=up stem=down name="Brass Chord 2" sname="ABCD-B" transpose=1
V:P gstem=up stem=down name="Piano" transpose=1
% %landscape off
%%landscape 
%%score {M H C ( P 1 2 3 15 16 )}
% %barsperstaff 4
[V:P]
%%MIDI voice P instrument=1     %Piano
%%MIDI program 1
     [V:P][CEG][D-][G-D-][GD]                                      | [Ge-][c-e][cG][d-]                         | [G-d-][G-d][G-][G]           | [G-][G-][G][z]              |
     [V:P][z][d-][G-d-][G-d]                                       | [Ge-][c-e][Gc][d-]                         | [G-d-][G-d][G-][G-]          | [G-][G-][Gc][z]             | %8
     [V:P][B,DFd-][d][z][F-]                                       | [F][Bd][F][c-]                             | [c-F-][cF-][F-][F]           | [F-][F-][F][G-]             | %12
     [V:P][CEG][c][d-][d]                                          | [Ge-][ce][Gc][d-]                          | [G-d-][G-d][G-][G-]          | [G-][G-][Gc][z]             | %16
     [V:P][CA-e-][Ae][a][E-G-B-g-]                                 | [EGBg-][g-][g][E,]                         | [z][z][B-][B]                | [z][z][z][z]                | %20
     [V:P][e-Ac][e][z][z]                                          | [EGB][z][z][z]                             | [EGB][z][G-e-][Ge]           | [Acea-][a-][a-][a]          | %24
     [V:P][a-][a-][a][z]                                           | [ec']-[ec']-[ec']-[ec']                    | [ec']-[ec'][a-][a]           | [g-][g-][g-][g]             | %28
[V:M]
%%MIDI program 110
[V:H]
%%MIDI program 110
[V:C]
%%MIDI program 110
     [V:M]                         z4                              | z4                                         | z4                           | z4                          | z4                      | z4             | z2       {g}A{d}A |  {g}c{d}c {g}e{G}e | {gde}d4- | {gde}d4- | dG {g}G{d}G | {g}B{d}B {g}d{e}d | {gcd}c4- | {gcd}c4- | cA {g}A{d}A | {g}c{d}c {g}e{G}e | $
     [V:H]                         z4                              | z4                                         | z4                           | z4                          | z4                      | z4             | z2       {g}A{d}A |  {g}c{d}c {g}e{G}e | {gde}d4- | {gde}d4- | dG {g}G{d}G | {g}B{d}B {g}d{e}d | {gcd}c4- | {gcd}c4- | cA {g}A{d}A | {g}c{d}c {g}e{G}e | $
     [V:C]                         z4                              | z4                                         | z4                           | z4                          | z4                      | z4             | z2       {g}A{d}A |  {g}c{d}c {g}e{G}e | {gde}d4- | {gde}d4- | dG {g}G{d}G | {g}B{d}B {g}d{e}d | {gcd}c4- | {gcd}c4- | cA {g}A{d}A | {g}c{d}c {g}e{G}e | $
w:  | | | | |       Hel-lo   dark-ness my old | friend   | -I've come to  talk with you  a  | gain      | - be cause a   vision softly | cre-ep-ing        |   -  left its seeds while I was |  sle-ep-ing |  $
% %barsperstaff 5
     [V:H]                         {g}d2{c}d{e}c-                  | c4-                                        | {g}c4                        | {g}c4                       | {g}d2{c}d{e}c-          | c4             | {AGAG}A2 {gef}e2  |
     [V:M]                         {g}f2{A}f{g}e-                  | e4-                                        | e2                  {g}A{d}A | {g}c{d}c           {g}e{G}e | {g}f2{A}f{g}e-          | e4-            | e2       {g}A{d}A |
     [V:C]                         {g}A4-                          | A4                                         | {g}A4-                       | A4                          | {g}A4-                  | A4             | {gcd}c4           |
% %barsperstaff 5
     [V:M]                         [M:4/4] {g}f{g}f- f2- f2 {g} fg | {g}a{g}a-               a2 {f}gf- f{gef}e- | e4-                 e2 fe-   | {gcd}c8-                    | [M:2/4]cA      {g}A{d}A | [M:4/4] e6- eG | Af-      f6-      |]
w:    |                                   - and the                    |        vision   - - -       that was                      | planted   in   my brain                         | - - still     re-                         | mains                                                | -     within the                    |        sound   of | silence     | $
     [V:H]                         [M:4/4] {gde}d4 {g}d2 G2        | {gAGAG}A8                                  | {AGAG}A4            {gcd}c4  | {gef}e4            e2 f2-   | [M:2/4]        f4       | [M:4/4] {g}c8  | Ac       GB Ac Bd |]
     [V:C]                         [M:4/4] {AGAG}A4- A2 d2         | {gfg}f4-                {gde}d4            | {gcd}c4             {AGAG}A4 | {AGAG}A4           G2 A2-   | [M:2/4]        A4       | [M:4/4] {g}A8  | c2       B2 c2 d2 |]
W: Use Gracenotes or Strikes to separate repeated notes that don't have gracenote separators.


